X:2237
T:Let Christians all with one accord rejoice
C:James Kewley, Agneash, Laxey
C:Traditional
O:Isle of Man
Z:Clague collection
N:Lhig Chaarjyn Chreest. 2nd tune, Journal of Folk Song Society (Volume not given)
B:Kiaull Vannin #237 
L:1/4
M:4/4 
K:D 
d2 AF|A2 d2|AF FE|D4 |c2 d e/f/|g2 f2|f/e/ d =cB|A4 |
A2 d e/f/|(g-e) f2|f/e/ d AB|=c4 |A2 A B/c/|d2 B2|AF{G} FE|D4||

